X:15
M:4/4
L:1/4
K:Eb
B/ | B B B _d | c B A3/2 B/ | G E G A | (B c) B3/2 B/ | B B B _d | c B A3/2 B/ | G E G A | (B c) B3/2 B/ | e3/2 _d/ c B | e c B3/2 B/ | e3/2 B/ B E | G B G3/2 !sintro!E/ | F A G F | (E F) !fermata!E3/2 !eintro!|]
